svg/snowboard.svg

<svg xmlns="http://www.w3.org/2000/svg" viewBox="0 0 66 66" enable-background="new 0 0 66 66"><style type="text/css">.st0{fill:#343434;}</style><title>snowboard</title><desc>Created with Sketch.</desc><path class="st0" d="M61.2 4.7c-5.1-5.1-13.3-5.1-18.4 0-.5.5-.9 1-1.3 1.5l-16.4 19.1-18.9 16.3c-.5.4-1 .8-1.5 1.3-5.1 5.1-5.1 13.3 0 18.4 5.1 5.1 13.3 5.1 18.4 0 .5-.5.9-.9 1.3-1.5l16.4-18.9 19.1-16.6c.5-.4 1-.8 1.4-1.2 5-5.1 5-13.3-.1-18.4zm-2.1 16.2l-20.5 17.8-17.7 20.4c-3.9 3.9-10.2 3.9-14.1 0-3.9-3.9-3.9-10.2 0-14.1l20.5-17.6 17.7-20.6c3.9-3.9 10.2-3.9 14.1 0 3.9 3.9 3.9 10.2 0 14.1zM30.4 32.5h-2c-1.1 0-2 .9-2 2v5c0 1.1.9 2 2 2h2c1.1 0 2-.9 2-2v-5c0-1.1-.9-2-2-2zm-2 7v-1.8h2v1.8h-2zm2-3.9h-2v-1.2h2v1.2zM38.2 24.7h-2c-1.1 0-2 .9-2 2v5c0 1.1.9 2 2 2h2c1.1 0 2-.9 2-2v-5c0-1.1-.9-2-2-2zm0 2v1.2h-2v-1.2h2zm-2 5v-1.8h2v1.8h-2z"/></svg>

<?xml version="1.0" encoding="utf-8"?>
<!-- Generator: Adobe Illustrator 21.0.0, SVG Export Plug-In . SVG Version: 6.00 Build 0)  -->
<svg version="1.1" id="Layer_1" xmlns="http://www.w3.org/2000/svg" xmlns:xlink="http://www.w3.org/1999/xlink" x="0px" y="0px"
	 viewBox="0 0 66 66" style="enable-background:new 0 0 66 66;" xml:space="preserve">
<style type="text/css">
	.st0{fill:#343434;}
</style>
<title>snowboard</title>
<desc>Created with Sketch.</desc>
<g>
	<path class="st0" d="M61.2,4.7c-5.1-5.1-13.3-5.1-18.4,0c-0.5,0.5-0.9,1-1.3,1.5L25.1,25.3L6.2,41.6c-0.5,0.4-1,0.8-1.5,1.3
		c-5.1,5.1-5.1,13.3,0,18.4c5.1,5.1,13.3,5.1,18.4,0c0.5-0.5,0.9-0.9,1.3-1.5l16.4-18.9l19.1-16.6c0.5-0.4,1-0.8,1.4-1.2
		C66.3,18,66.3,9.8,61.2,4.7z M59.1,20.9L38.6,38.7L20.9,59.1C17,63,10.7,63,6.8,59.1c-3.9-3.9-3.9-10.2,0-14.1l20.5-17.6L45,6.8
		c3.9-3.9,10.2-3.9,14.1,0C63,10.7,63,17,59.1,20.9z"/>
	<path class="st0" d="M30.4,32.5h-2c-1.1,0-2,0.9-2,2v5c0,1.1,0.9,2,2,2h2c1.1,0,2-0.9,2-2v-5C32.4,33.4,31.5,32.5,30.4,32.5z
		 M28.4,39.5c0,0,0-0.8,0-1.8h2c0,1,0,1.8,0,1.8H28.4z M30.4,35.6h-2c0-0.7,0-1.2,0-1.2h2C30.4,34.5,30.4,35,30.4,35.6z"/>
	<path class="st0" d="M38.2,24.7h-2c-1.1,0-2,0.9-2,2v5c0,1.1,0.9,2,2,2h2c1.1,0,2-0.9,2-2v-5C40.2,25.6,39.3,24.7,38.2,24.7z
		 M38.2,26.7c0,0,0,0.5,0,1.2h-2c0-0.7,0-1.2,0-1.2H38.2z M36.2,31.7c0,0,0-0.8,0-1.8h2c0,1,0,1.8,0,1.8H36.2z"/>
</g>
</svg>
